src/assets/Cryptologos/btccash.svg

<svg width="26" height="26" viewBox="0 0 26 26" fill="none" xmlns="http://www.w3.org/2000/svg">
<path opacity="0.2" d="M13 26C20.1797 26 26 20.1797 26 13C26 5.8203 20.1797 0 13 0C5.8203 0 0 5.8203 0 13C0 20.1797 5.8203 26 13 26Z" fill="#8EFF1A"/>
<path fill-rule="evenodd" clip-rule="evenodd" d="M17.0372 12.6072C16.662 12.2984 16.1735 12.1439 15.5718 12.1439C16.1972 11.5797 16.3514 10.8488 16.0349 9.95083C15.9225 9.6246 15.7621 9.35761 15.5532 9.1495C15.3443 8.94135 15.0957 8.79416 14.8066 8.70801C14.5177 8.62163 14.2156 8.57639 13.901 8.57176C13.5862 8.56716 13.2332 8.59492 12.8419 8.65506L12.3652 6.74513L11.2472 7.02429L11.7107 8.88115C11.5171 8.92949 11.2231 9.00826 10.8288 9.11746L10.3615 7.24544L9.24336 7.52463L9.72011 9.43456C9.5616 9.47953 9.32752 9.54071 9.01776 9.61806L7.47669 9.99473L7.78696 11.2377L8.5928 11.0365C8.96067 10.9447 9.21895 11.0627 9.36762 11.3905L9.91058 13.5658C9.95905 13.5537 9.99838 13.5466 10.0287 13.5444L9.91249 13.5734L10.673 16.6201C10.6986 16.8874 10.5904 17.0513 10.3484 17.1118L9.54261 17.313L9.66372 18.7562L11.1158 18.3936C11.2078 18.3706 11.3411 18.3387 11.516 18.2975C11.6909 18.2565 11.8218 18.2252 11.909 18.2034L12.3914 20.136L13.5097 19.8568L13.033 17.9469C13.2375 17.9013 13.5334 17.8301 13.9206 17.7334L14.3954 19.6356L15.5134 19.3565L15.031 17.4238C15.423 17.3045 15.7657 17.1789 16.059 17.0464C16.3524 16.9139 16.6248 16.7535 16.8758 16.5646C17.1268 16.3758 17.3246 16.1693 17.4692 15.9454C17.614 15.7215 17.7138 15.4576 17.7693 15.1539C17.8244 14.8502 17.8243 14.5147 17.7686 14.1475C17.6565 13.4296 17.4125 12.9161 17.0372 12.6072ZM11.1914 10.4759L11.1915 10.4759L11.7723 12.8024C11.7966 12.7963 11.8803 12.7768 12.0238 12.7437C12.1673 12.7105 12.2798 12.6824 12.3615 12.6593C12.4431 12.6363 12.5629 12.6009 12.7208 12.5535C12.8787 12.5061 13.0083 12.4589 13.1098 12.4121C13.2112 12.3654 13.3289 12.3065 13.4628 12.2354C13.5967 12.1645 13.7025 12.0884 13.7799 12.0074C13.8574 11.9264 13.9301 11.8357 13.9976 11.7356C14.0651 11.6356 14.1063 11.522 14.1207 11.3949C14.1352 11.2678 14.1248 11.1335 14.0895 10.9921C14.0479 10.8254 13.9807 10.6851 13.888 10.5715C13.7954 10.4577 13.6951 10.37 13.5871 10.3084C13.4792 10.2468 13.3455 10.205 13.1856 10.1832C13.026 10.1613 12.8824 10.1529 12.7551 10.1579C12.6278 10.1629 12.4739 10.1798 12.2935 10.2087C12.1129 10.2377 11.971 10.2664 11.8675 10.2949C11.7641 10.3234 11.634 10.3586 11.4773 10.4005C11.3207 10.4422 11.2255 10.4674 11.1915 10.4759L11.1915 10.4758L11.1914 10.4759L11.1914 10.4759ZM15.4303 15.2232C15.4814 15.1191 15.5153 15.0033 15.5324 14.8755C15.5494 14.7477 15.5403 14.6133 15.505 14.4717C15.4595 14.2898 15.3829 14.1372 15.2748 14.0139C15.1669 13.8905 15.0484 13.7968 14.9192 13.7323C14.7899 13.668 14.6315 13.6257 14.4439 13.6055C14.2561 13.5852 14.0861 13.5781 13.9333 13.584C13.7804 13.5899 13.5956 13.612 13.379 13.6501C13.1621 13.688 12.9932 13.7223 12.8722 13.7525C12.7511 13.7827 12.5957 13.824 12.4057 13.8769C12.2157 13.9298 12.1013 13.9609 12.0627 13.9706L12.7022 16.5321C12.741 16.5225 12.8308 16.5014 12.9718 16.4687C13.1128 16.4361 13.2294 16.4085 13.3214 16.3855C13.4133 16.3626 13.5407 16.3267 13.7034 16.2782C13.8661 16.2294 14.0051 16.184 14.1205 16.1418C14.2361 16.0994 14.3686 16.0437 14.5186 15.974C14.6681 15.9043 14.7937 15.8356 14.895 15.7672C14.9962 15.699 15.098 15.6174 15.2001 15.522C15.3023 15.4268 15.379 15.3271 15.4303 15.2232Z" fill="#82FF00"/>
</svg>

<svg xmlns="http://www.w3.org/2000/svg" width="26" height="26" fill="none" xmlns:v="https://vecta.io/nano"><path opacity=".2" d="M13 26c7.18 0 13-5.82 13-13S20.18 0 13 0 0 5.82 0 13s5.82 13 13 13z" fill="#8eff1a"/><path fill-rule="evenodd" d="M17.037 12.607c-.375-.309-.864-.463-1.465-.463.625-.564.78-1.295.463-2.193-.112-.326-.273-.593-.482-.801s-.457-.355-.747-.441-.591-.132-.906-.136-.668.023-1.059.083l-.477-1.91-1.118.279.463 1.857-.882.236-.467-1.872-1.118.279.477 1.91-.702.184-1.541.377.31 1.243.806-.201c.368-.092.626.026.775.354l.543 2.175a.73.73 0 0 1 .118-.021l-.116.029.761 3.047c.026.267-.083.431-.325.492l-.806.201.121 1.443 1.452-.363.4-.096.393-.094.482 1.933 1.118-.279-.477-1.91.888-.213.475 1.902 1.118-.279-.482-1.933a8.59 8.59 0 0 0 1.028-.377 4.29 4.29 0 0 0 .817-.482 2.44 2.44 0 0 0 .593-.619c.145-.224.245-.488.3-.791s.055-.639-.001-1.006c-.112-.718-.356-1.231-.731-1.54zm-5.846-2.131h0l.581 2.327.252-.059.338-.084.359-.106a3.03 3.03 0 0 0 .389-.141l.353-.177c.134-.071.24-.147.317-.228a2.05 2.05 0 0 0 .218-.272.75.75 0 0 0 .123-.341 1.13 1.13 0 0 0-.031-.403 1.06 1.06 0 0 0-.201-.421c-.093-.114-.193-.202-.301-.263s-.242-.103-.401-.125a2.48 2.48 0 0 0-.431-.025c-.127.005-.281.022-.462.051l-.426.086-.39.106-.286.075h0 0 0zm4.239 4.747a1.12 1.12 0 0 0 .102-.348c.017-.128.008-.262-.027-.404-.046-.182-.122-.335-.23-.458s-.226-.217-.356-.282-.288-.107-.475-.127a3.52 3.52 0 0 0-.511-.021 4.22 4.22 0 0 0-.554.066l-.507.102-.466.124-.343.094.64 2.562.27-.063.35-.083.382-.107.417-.136.398-.168c.15-.07.275-.138.376-.207s.203-.15.305-.245.179-.195.23-.299z" fill="#82ff00"/></svg>
